X: 29700
T: Novella
R: polka
M: 2/4
K: Gmajor
BD cD|ed/^c/ d z|Aa Fa|ag/f/ g z|
BD cD|ed/^c/ d z|Ad Fd|1 A/G/G/F/ G z:|2 A/G/G/F/ G||
F|EF/E/ Ac|cB/^A/ Bd|fc fc|ag/f/ gf|
EF/E/ Ac|cB/^A/ B>^c|dD z/ G/G/^c/|d/d'/d'/d'/ d'/d'/d'/d'/|
c'a c'd'|b^a/b/ b/a/b/c'/|ad ab|g/f/g z ^g|
aa/^g/ a=g|fg/a/ b z|d'e d'f|a/g/g/f/ g z||

